public/img/heres-to-the-crazy-ones.svg

<?xml version="1.0" encoding="UTF-8" standalone="no"?>
<!-- Created with Inkscape (http://www.inkscape.org/) -->

<svg
   xmlns:dc="http://purl.org/dc/elements/1.1/"
   xmlns:cc="http://creativecommons.org/ns#"
   xmlns:rdf="http://www.w3.org/1999/02/22-rdf-syntax-ns#"
   xmlns:svg="http://www.w3.org/2000/svg"
   xmlns="http://www.w3.org/2000/svg"
   xmlns:xlink="http://www.w3.org/1999/xlink"
   version="1.1"
   width="640"
   height="640"
   id="svg2">
  <defs
     id="defs4">
    <linearGradient
       x1="2.6664381"
       y1="53.415836"
       x2="84.485001"
       y2="53.415836"
       id="linearGradient4391"
       xlink:href="#linearGradient5274"
       gradientUnits="userSpaceOnUse"
       gradientTransform="matrix(0,6.047896,-6.047896,0,723.0535,36.45844)"
       spreadMethod="pad" />
    <linearGradient
       id="linearGradient4385">
      <stop
         id="stop4387"
         style="stop-color:#009800;stop-opacity:1"
         offset="0" />
      <stop
         id="stop5268"
         style="stop-color:#ffdf00;stop-opacity:1"
         offset="0.25" />
      <stop
         id="stop5266"
         style="stop-color:#ff9800;stop-opacity:1"
         offset="0.5" />
      <stop
         id="stop5272"
         style="stop-color:#cf003f;stop-opacity:1"
         offset="0.625" />
      <stop
         id="stop5270"
         style="stop-color:#9f4d7f;stop-opacity:1"
         offset="0.75" />
      <stop
         id="stop4389"
         style="stop-color:#0098ff;stop-opacity:1"
         offset="1" />
    </linearGradient>
    <linearGradient
       id="linearGradient5274">
      <stop
         id="stop5276"
         style="stop-color:#00b400;stop-opacity:1"
         offset="0" />
      <stop
         id="stop6161"
         style="stop-color:#00b400;stop-opacity:1"
         offset="0.3246707" />
      <stop
         id="stop5278"
         style="stop-color:#fff000;stop-opacity:1"
         offset="0.3246707" />
      <stop
         id="stop6163"
         style="stop-color:#fff000;stop-opacity:1"
         offset="0.47999999" />
      <stop
         id="stop5280"
         style="stop-color:#ff8200;stop-opacity:1"
         offset="0.47999999" />
      <stop
         id="stop6165"
         style="stop-color:#ff8200;stop-opacity:1"
         offset="0.63999999" />
      <stop
         id="stop5282"
         style="stop-color:#c80000;stop-opacity:1"
         offset="0.63999999" />
      <stop
         id="stop6167"
         style="stop-color:#c80000;stop-opacity:1"
         offset="0.79192597" />
      <stop
         id="stop5284"
         style="stop-color:#aa0096;stop-opacity:1"
         offset="0.79192597" />
      <stop
         id="stop6169"
         style="stop-color:#aa0096;stop-opacity:1"
         offset="0.94999999" />
      <stop
         id="stop6171"
         style="stop-color:#0096ff;stop-opacity:1"
         offset="0.94999999" />
      <stop
         id="stop5286"
         style="stop-color:#0096ff;stop-opacity:1"
         offset="1" />
    </linearGradient>
  </defs>
  <metadata
     id="metadata7">
    <rdf:RDF>
      <cc:Work
         rdf:about="">
        <dc:format>image/svg+xml</dc:format>
        <dc:type
           rdf:resource="http://purl.org/dc/dcmitype/StillImage" />
        <dc:title></dc:title>
      </cc:Work>
    </rdf:RDF>
  </metadata>
  <g
     transform="translate(-144.01338,-178.07646)"
     id="layer1">
    <g
       transform="translate(66.263406,195.22974)"
       id="layer1-9">
      <path
         d="M 523.15657,-1.4286898e-6 C 477.65307,4.6954686 450.8123,28.175739 433.51532,51.500229 c -13.00607,18.0274 -30.07631,46.0912 -31.86861,80.250181 40.08835,-2.12819 56.37135,-14.87938 77.03801,-31.58495 C 504.43058,76.808769 523.19718,29.393519 523.15657,-1.4286898e-6 z M 524.18924,143.02014 c -34.73383,-0.21554 -67.13947,12.67818 -100.07984,21.60678 -37.90304,8.0251 -70.40951,-21.20281 -107.97683,-20.58795 -65.49436,-6.04022 -125.90127,40.96122 -147.8961,100.84924 -32.85924,82.02355 -9.91645,174.75796 31.22779,249.38708 22.48432,39.2424 68.5243,107.96488 117.7384,105.36575 22.57753,1.2025 57.30125,-13.74045 98.98034,-20.45482 40.13125,-1.20805 77.65605,30.26688 118.20588,17.95004 45.40304,-21.9443 75.54493,-66.56308 97.14186,-110.67932 6.16466,-13.84641 10.68213,-28.33519 15.88443,-42.55384 -95.02002,-38.05887 -119.15688,-181.6453 -16.98302,-245.13875 -13.48174,-24.63646 -31.24246,-37.91173 -50.01906,-45.87216 -18.49017,-5.50682 -37.29619,-10.03156 -56.22385,-9.87205 z"
         id="path1560"
         style="fill:url(#linearGradient4391);fill-opacity:1" />
    </g>
  </g>
</svg>

<?xml version="1.0" encoding="UTF-8" standalone="no"?>
<!-- Created with Inkscape (http://www.inkscape.org/) -->
<svg
   xmlns:dc="http://purl.org/dc/elements/1.1/"
   xmlns:cc="http://web.resource.org/cc/"
   xmlns:rdf="http://www.w3.org/1999/02/22-rdf-syntax-ns#"
   xmlns:svg="http://www.w3.org/2000/svg"
   xmlns="http://www.w3.org/2000/svg"
   xmlns:xlink="http://www.w3.org/1999/xlink"
   xmlns:sodipodi="http://inkscape.sourceforge.net/DTD/sodipodi-0.dtd"
   xmlns:inkscape="http://www.inkscape.org/namespaces/inkscape"
   width="800"
   height="600"
   id="svg2"
   sodipodi:version="0.32"
   inkscape:version="0.43"
   version="1.0"
   sodipodi:docbase="/home/pulkomandy/Images/logos"
   sodipodi:docname="apple.svg">
  <defs
     id="defs4">
    <linearGradient
       id="linearGradient5274">
      <stop
         id="stop5276"
         offset="0"
         style="stop-color:#00b400;stop-opacity:1;" />
      <stop
         style="stop-color:#00b400;stop-opacity:1;"
         offset="0.3246707"
         id="stop6161" />
      <stop
         style="stop-color:#fff000;stop-opacity:1;"
         offset="0.3246707"
         id="stop5278" />
      <stop
         id="stop6163"
         offset="0.47999999"
         style="stop-color:#fff000;stop-opacity:1;" />
      <stop
         style="stop-color:#ff8200;stop-opacity:1;"
         offset="0.47999999"
         id="stop5280" />
      <stop
         id="stop6165"
         offset="0.63999999"
         style="stop-color:#ff8200;stop-opacity:1;" />
      <stop
         id="stop5282"
         offset="0.63999999"
         style="stop-color:#c80000;stop-opacity:1;" />
      <stop
         style="stop-color:#c80000;stop-opacity:1;"
         offset="0.79192597"
         id="stop6167" />
      <stop
         id="stop5284"
         offset="0.79192597"
         style="stop-color:#aa0096;stop-opacity:1;" />
      <stop
         style="stop-color:#aa0096;stop-opacity:1;"
         offset="0.94999999"
         id="stop6169" />
      <stop
         id="stop6171"
         offset="0.94999999"
         style="stop-color:#0096ff;stop-opacity:1;" />
      <stop
         id="stop5286"
         offset="1"
         style="stop-color:#0096ff;stop-opacity:1;" />
    </linearGradient>
    <linearGradient
       id="linearGradient4385">
      <stop
         style="stop-color:#009800;stop-opacity:1;"
         offset="0"
         id="stop4387" />
      <stop
         id="stop5268"
         offset="0.25"
         style="stop-color:#ffdf00;stop-opacity:1;" />
      <stop
         id="stop5266"
         offset="0.5"
         style="stop-color:#ff9800;stop-opacity:1;" />
      <stop
         style="stop-color:#cf003f;stop-opacity:1;"
         offset="0.625"
         id="stop5272" />
      <stop
         style="stop-color:#9f4d7f;stop-opacity:1;"
         offset="0.75"
         id="stop5270" />
      <stop
         style="stop-color:#0098ff;stop-opacity:1;"
         offset="1"
         id="stop4389" />
    </linearGradient>
    <linearGradient
       inkscape:collect="always"
       xlink:href="#linearGradient5274"
       id="linearGradient4391"
       x1="2.6664381"
       y1="53.415836"
       x2="84.485001"
       y2="53.415836"
       gradientUnits="userSpaceOnUse"
       spreadMethod="pad"
       gradientTransform="matrix(0,6.047896,-6.047896,0,723.0535,36.45844)" />
  </defs>
  <sodipodi:namedview
     id="base"
     pagecolor="#ffffff"
     bordercolor="#666666"
     borderopacity="1.0"
     inkscape:pageopacity="0.0"
     inkscape:pageshadow="2"
     inkscape:zoom="0.535"
     inkscape:cx="400"
     inkscape:cy="300"
     inkscape:document-units="px"
     inkscape:current-layer="layer1"
     inkscape:window-width="1276"
     inkscape:window-height="485"
     inkscape:window-x="0"
     inkscape:window-y="0" />
  <metadata
     id="metadata7">
    <rdf:RDF>
      <cc:Work
         rdf:about="">
        <dc:format>image/svg+xml</dc:format>
        <dc:type
           rdf:resource="http://purl.org/dc/dcmitype/StillImage" />
      </cc:Work>
    </rdf:RDF>
  </metadata>
  <g
     inkscape:label="Layer 1"
     inkscape:groupmode="layer"
     id="layer1">
    <path
       style="fill:url(#linearGradient4391);fill-opacity:1"
       d="M 523.15657,-1.4286898e-06 C 477.65307,4.6954686 450.8123,28.175739 433.51532,51.500229 C 420.50925,69.527629 403.43901,97.591429 401.64671,131.75041 C 441.73506,129.62222 458.01806,116.87103 478.68472,100.16546 C 504.43058,76.808769 523.19718,29.393519 523.15657,-1.4286898e-06 z M 524.18924,143.02014 C 489.45541,142.8046 457.04977,155.69832 424.1094,164.62692 C 386.20636,172.65202 353.69989,143.42411 316.13257,144.03897 C 250.63821,137.99875 190.2313,185.00019 168.23647,244.88821 C 135.37723,326.91176 158.32002,419.64617 199.46426,494.27529 C 221.94858,533.51769 267.98856,602.24017 317.20266,599.64104 C 339.78019,600.84354 374.50391,585.90059 416.183,579.18622 C 456.31425,577.97817 493.83905,609.4531 534.38888,597.13626 C 579.79192,575.19196 609.93381,530.57318 631.53074,486.45694 C 637.6954,472.61053 642.21287,458.12175 647.41517,443.9031 C 552.39515,405.84423 528.25829,262.2578 630.43215,198.76435 C 616.95041,174.12789 599.18969,160.85262 580.41309,152.89219 C 561.92292,147.38537 543.1169,142.86063 524.18924,143.02014 z "
       id="path1560"
       sodipodi:nodetypes="cccccccccccccccccc" />
  </g>
</svg>
